X:1
T:The False Knight and the Wee Boy
M:2/4
L:1/16
K:C
 d2| G2 GG G2A-B| c3 B A2 Bd| f3- e d3- G| A2G2 G2| d2| G2 GG G2 AB|\
 cd cB A2G-B| f3- e d2G2| G4 z2||
